X: 43117
T: Wine Shower
R: reel
M: 4/4
K: Dmajor
|FAdA FAdA|FAdA ~e3g|fd^e=e dBAd|ABBd BAGA||
FAdA FAdA|FAdA ~e3g|edec cBAd|ABBd BAGA||

